src/64x64/places/folder-gruvbox-original-orange-script.svg

<?xml version="1.0" encoding="UTF-8"?>
<svg width="64" height="64" version="1" xmlns="http://www.w3.org/2000/svg">
 <rect x="4" y="22" width="56" height="36" rx="2.8" ry="2.8" opacity=".2"/>
 <path d="m4 46.2c0 1.551 1.2488 2.8 2.8 2.8h50.4c1.551 0 2.8-1.249 2.8-2.8v-30.4c0-1.551-1.249-2.8-2.8-2.8h-25.2c-4.2 0-5.6-6-9.8-6h-15.4c-1.5512 0-2.8 1.2488-2.8 2.8" fill="#af3a03"/>
 <rect x="4" y="20" width="56" height="36" rx="2.8" ry="2.8" opacity=".2"/>
 <rect x="8" y="16" width="48" height="22" rx="2.8" ry="2.8" fill="#F1D8AF"/>
 <rect x="4" y="21" width="56" height="36" rx="2.8" ry="2.8" fill="#fe8019"/>
 <path d="m6.8008 7c-1.5512 0-2.8008 1.2496-2.8008 2.8008v1.0002c0-1.5514 1.2496-2.801 2.8008-2.801h15.398c4.2 0 5.601 6 9.801 6h25.199c1.551 0 2.801 1.25 2.801 2.801v-1c0-1.551-1.25-2.801-2.801-2.801h-25.199c-4.2 0-5.601-6-9.801-6z" fill="#F1D8AF" opacity=".1"/>
 <path d="m23 30v18h18v-18z" fill="#46352B"/>
 <g fill="#fe8019">
  <path d="m31 38h4v1h-4z"/>
  <rect x="27" y="32" width="1" height="7"/>
  <path d="m26.5 33c-0.83 0-1.5 0.67-1.5 1.5s0.67 1.5 1.5 1.5h2c0.28 0 0.5 0.22 0.5 0.5s-0.22 0.51-0.5 0.5h-3.41c0.21 0.58 0.76 1 1.41 1h2c0.83 0 1.5-0.67 1.5-1.5s-0.67-1.5-1.5-1.5h-2c-0.28 0-0.5-0.22-0.5-0.5s0.22-0.5 0.5-0.5h3.41c-0.21-0.58-0.76-1-1.41-1h-0.5z"/>
 </g>
</svg>

<svg xmlns="http://www.w3.org/2000/svg" width="64" height="64" version="1">
 <rect style="opacity:0.2" width="56" height="36" x="4" y="22" rx="2.8" ry="2.8"/>
 <path style="fill:#af3a03" d="M 4,46.2 C 4,47.751 5.2488,49 6.8,49 H 57.2 C 58.751,49 60,47.751 60,46.2 V 15.8 C 60,14.249 58.751,13 57.2,13 H 32 C 27.8,13 26.4,7 22.2,7 H 6.8 C 5.2488,7 4,8.2488 4,9.8"/>
 <rect style="opacity:0.2" width="56" height="36" x="4" y="20" rx="2.8" ry="2.8"/>
 <rect style="fill:#F1D8AF" width="48" height="22" x="8" y="16" rx="2.8" ry="2.8"/>
 <rect style="fill:#fe8019" width="56" height="36" x="4" y="21" rx="2.8" ry="2.8"/>
 <path style="opacity:0.1;fill:#F1D8AF" d="M 6.8008,7 C 5.2496,7 4,8.2496 4,9.8008 V 10.801 C 4,9.2496 5.2496,8 6.8008,8 H 22.199 C 26.399,8 27.8,14 32,14 H 57.199 C 58.75,14 60,15.25 60,16.801 V 15.801 C 60,14.25 58.75,13 57.199,13 H 32 C 27.8,13 26.399,7 22.199,7 Z"/>
 <path style="fill:#46352B" d="M 23,30 V 48 H 41 V 30 Z"/>
 <g style="fill:#fe8019">
  <path style="fill:#fe8019" d="M 31,38 H 35 V 39 H 31 Z"/>
  <rect style="fill:#fe8019" width="1" height="7" x="27" y="32"/>
  <path style="fill:#fe8019" d="M 26.5,33 C 25.67,33 25,33.67 25,34.5 25,35.33 25.67,36 26.5,36 H 28 28.5 C 28.78,36 29,36.22 29,36.5 29,36.78 28.78,37.01 28.5,37 H 28 26.5 25.09 C 25.3,37.58 25.85,38 26.5,38 H 28 28.5 C 29.33,38 30,37.33 30,36.5 30,35.67 29.33,35 28.5,35 H 28 26.5 C 26.22,35 26,34.78 26,34.5 26,34.22 26.22,34 26.5,34 H 28 28.5 29.91 C 29.7,33.42 29.15,33 28.5,33 H 28 Z"/>
 </g>
</svg>
